Newaita-dark/actions/24/draw-star.svg

<?xml version="1.0" encoding="UTF-8"?>
<svg xmlns="http://www.w3.org/2000/svg" xmlns:xlink="http://www.w3.org/1999/xlink" width="24pt" height="24pt" viewBox="0 0 24 24" version="1.1">
<g id="surface1">
<path style=" stroke:none;fill-rule:nonzero;fill:rgb(100%,43.921569%,26.274511%);fill-opacity:1;" d="M 11.90625 1.421875 C 11.4375 1.421875 11.171875 1.671875 10.960938 1.890625 C 10.753906 2.109375 10.585938 2.363281 10.410156 2.652344 C 10.066406 3.226562 9.722656 3.945312 9.390625 4.671875 C 9.058594 5.402344 8.734375 6.136719 8.453125 6.710938 C 8.3125 6.996094 8.183594 7.242188 8.078125 7.414062 C 8.019531 7.511719 7.957031 7.582031 7.929688 7.613281 C 7.890625 7.628906 7.808594 7.664062 7.691406 7.691406 C 7.5 7.738281 7.226562 7.785156 6.910156 7.832031 C 6.28125 7.921875 5.476562 8 4.683594 8.09375 C 3.886719 8.183594 3.097656 8.289062 2.445312 8.4375 C 2.117188 8.515625 1.824219 8.597656 1.550781 8.730469 C 1.28125 8.859375 0.957031 9.035156 0.8125 9.484375 C 0.667969 9.929688 0.824219 10.261719 0.96875 10.527344 C 1.113281 10.792969 1.300781 11.03125 1.519531 11.285156 C 1.960938 11.792969 2.539062 12.339844 3.128906 12.878906 C 3.71875 13.421875 4.316406 13.957031 4.777344 14.402344 C 5.003906 14.625 5.199219 14.824219 5.328125 14.976562 C 5.402344 15.0625 5.449219 15.140625 5.472656 15.175781 C 5.476562 15.222656 5.484375 15.3125 5.472656 15.429688 C 5.457031 15.628906 5.417969 15.902344 5.363281 16.214844 C 5.253906 16.84375 5.082031 17.628906 4.925781 18.414062 C 4.765625 19.199219 4.621094 19.980469 4.5625 20.652344 C 4.535156 20.984375 4.523438 21.289062 4.5625 21.589844 C 4.601562 21.886719 4.667969 22.246094 5.050781 22.523438 C 5.433594 22.800781 5.796875 22.753906 6.089844 22.699219 C 6.386719 22.644531 6.675781 22.539062 6.984375 22.410156 C 7.601562 22.148438 8.300781 21.765625 8.996094 21.375 C 9.695312 20.980469 10.390625 20.574219 10.953125 20.277344 C 11.234375 20.128906 11.484375 20.003906 11.667969 19.929688 C 11.777344 19.882812 11.867188 19.863281 11.90625 19.851562 C 11.949219 19.863281 12.039062 19.882812 12.144531 19.929688 C 12.332031 20.003906 12.578125 20.128906 12.859375 20.277344 C 13.425781 20.574219 14.121094 20.980469 14.816406 21.375 C 15.515625 21.765625 16.210938 22.148438 16.832031 22.410156 C 17.140625 22.539062 17.425781 22.644531 17.722656 22.699219 C 18.019531 22.753906 18.382812 22.800781 18.765625 22.523438 C 19.144531 22.246094 19.210938 21.886719 19.25 21.589844 C 19.292969 21.289062 19.28125 20.984375 19.253906 20.652344 C 19.195312 19.980469 19.046875 19.199219 18.890625 18.414062 C 18.730469 17.628906 18.558594 16.84375 18.449219 16.214844 C 18.394531 15.902344 18.355469 15.628906 18.339844 15.429688 C 18.332031 15.3125 18.339844 15.222656 18.339844 15.175781 C 18.363281 15.140625 18.410156 15.0625 18.488281 14.976562 C 18.617188 14.824219 18.8125 14.625 19.039062 14.402344 C 19.496094 13.957031 20.097656 13.421875 20.6875 12.878906 C 21.277344 12.339844 21.855469 11.792969 22.296875 11.285156 C 22.515625 11.03125 22.703125 10.792969 22.847656 10.527344 C 22.988281 10.261719 23.148438 9.929688 23 9.484375 C 22.855469 9.035156 22.535156 8.859375 22.261719 8.730469 C 21.992188 8.597656 21.699219 8.515625 21.371094 8.4375 C 20.714844 8.289062 19.929688 8.183594 19.132812 8.09375 C 18.335938 8 17.535156 7.921875 16.90625 7.832031 C 16.589844 7.785156 16.316406 7.738281 16.121094 7.691406 C 16.007812 7.664062 15.925781 7.628906 15.882812 7.613281 C 15.855469 7.582031 15.796875 7.511719 15.734375 7.414062 C 15.632812 7.242188 15.5 6.996094 15.363281 6.710938 C 15.082031 6.136719 14.757812 5.402344 14.425781 4.671875 C 14.089844 3.945312 13.75 3.226562 13.402344 2.652344 C 13.230469 2.363281 13.058594 2.109375 12.851562 1.890625 C 12.644531 1.671875 12.378906 1.421875 11.90625 1.421875 Z M 11.90625 3.105469 C 11.972656 3.191406 12.042969 3.296875 12.117188 3.425781 C 12.402344 3.894531 12.734375 4.582031 13.058594 5.296875 C 13.386719 6.011719 13.710938 6.753906 14.015625 7.371094 C 14.164062 7.679688 14.308594 7.957031 14.457031 8.195312 C 14.605469 8.4375 14.71875 8.636719 14.996094 8.835938 C 15.269531 9.035156 15.496094 9.085938 15.769531 9.152344 C 16.042969 9.214844 16.351562 9.269531 16.695312 9.316406 C 17.375 9.414062 18.179688 9.492188 18.960938 9.582031 C 19.738281 9.675781 20.496094 9.777344 21.03125 9.898438 C 21.175781 9.933594 21.296875 9.96875 21.402344 10.003906 C 21.335938 10.089844 21.257812 10.191406 21.164062 10.300781 C 20.800781 10.714844 20.25 11.246094 19.671875 11.777344 C 19.09375 12.308594 18.488281 12.84375 17.996094 13.324219 C 17.75 13.5625 17.527344 13.785156 17.347656 14 C 17.164062 14.214844 17.007812 14.386719 16.902344 14.710938 C 16.796875 15.035156 16.824219 15.265625 16.84375 15.542969 C 16.867188 15.824219 16.914062 16.136719 16.972656 16.472656 C 17.089844 17.152344 17.261719 17.941406 17.417969 18.710938 C 17.574219 19.480469 17.710938 20.234375 17.757812 20.78125 C 17.769531 20.925781 17.773438 21.054688 17.773438 21.164062 C 17.671875 21.128906 17.550781 21.085938 17.417969 21.027344 C 16.910156 20.816406 16.238281 20.453125 15.554688 20.066406 C 14.871094 19.679688 14.171875 19.273438 13.5625 18.949219 C 13.257812 18.789062 12.980469 18.648438 12.71875 18.542969 C 12.457031 18.433594 12.246094 18.339844 11.90625 18.339844 C 11.566406 18.339844 11.355469 18.433594 11.097656 18.542969 C 10.835938 18.648438 10.554688 18.789062 10.25 18.949219 C 9.644531 19.273438 8.945312 19.679688 8.261719 20.066406 C 7.578125 20.453125 6.902344 20.816406 6.398438 21.027344 C 6.261719 21.085938 6.144531 21.128906 6.039062 21.164062 C 6.039062 21.054688 6.042969 20.925781 6.058594 20.78125 C 6.105469 20.234375 6.242188 19.480469 6.394531 18.710938 C 6.550781 17.941406 6.722656 17.152344 6.84375 16.472656 C 6.902344 16.136719 6.949219 15.824219 6.96875 15.542969 C 6.992188 15.265625 7.015625 15.035156 6.910156 14.710938 C 6.804688 14.386719 6.652344 14.214844 6.46875 14 C 6.285156 13.785156 6.066406 13.5625 5.820312 13.324219 C 5.324219 12.84375 4.71875 12.308594 4.140625 11.777344 C 3.5625 11.246094 3.011719 10.714844 2.652344 10.300781 C 2.554688 10.191406 2.476562 10.089844 2.414062 10.003906 C 2.515625 9.96875 2.640625 9.933594 2.78125 9.898438 C 3.316406 9.777344 4.074219 9.675781 4.855469 9.582031 C 5.632812 9.492188 6.441406 9.414062 7.121094 9.316406 C 7.460938 9.269531 7.769531 9.214844 8.042969 9.152344 C 8.316406 9.085938 8.546875 9.035156 8.820312 8.835938 C 9.09375 8.636719 9.210938 8.4375 9.355469 8.195312 C 9.503906 7.957031 9.648438 7.679688 9.800781 7.371094 C 10.101562 6.753906 10.429688 6.011719 10.753906 5.296875 C 11.082031 4.582031 11.414062 3.894531 11.695312 3.425781 C 11.773438 3.296875 11.84375 3.191406 11.90625 3.105469 Z M 11.90625 3.105469 "/>
</g>
</svg>

<svg xmlns="http://www.w3.org/2000/svg" width="32" height="32" viewBox="0 0 24 24"><path d="M11.906 1.422c-.469 0-.734.25-.945.469a4.436 4.436 0 0 0-.55.761c-.345.575-.688 1.293-1.02 2.02-.332.73-.657 1.465-.938 2.039-.14.285-.27.531-.375.703-.058.098-.121.168-.148.2-.04.015-.121.05-.239.077a9.361 9.361 0 0 1-.78.141c-.63.09-1.434.168-2.227.262-.797.09-1.586.195-2.239.344a4.29 4.29 0 0 0-.894.292c-.27.13-.594.305-.738.754-.145.446.011.778.156 1.043.144.266.332.504.55.758.442.508 1.02 1.055 1.61 1.594.59.543 1.187 1.078 1.648 1.523.227.223.422.422.551.575.074.085.121.164.145.199.004.047.011.136 0 .254-.016.199-.055.472-.11.785-.11.629-.281 1.414-.437 2.2-.16.784-.305 1.565-.364 2.237-.027.332-.039.637 0 .938.04.297.106.656.489.933.383.278.746.23 1.039.176.297-.054.586-.16.894-.289.618-.262 1.317-.644 2.012-1.035.7-.395 1.395-.8 1.957-1.098.281-.148.531-.273.715-.347.11-.047.2-.067.238-.078.043.011.133.03.239.078.187.074.433.199.714.347.567.297 1.262.703 1.957 1.098.7.39 1.395.773 2.016 1.035.309.13.594.235.89.29.298.054.66.1 1.044-.177.379-.277.445-.636.484-.933.043-.3.031-.606.004-.938-.059-.672-.207-1.453-.363-2.238-.16-.785-.332-1.57-.442-2.2a8.976 8.976 0 0 1-.11-.784c-.007-.117 0-.207 0-.254.024-.035.071-.114.15-.2.128-.152.323-.351.55-.574.457-.445 1.059-.98 1.648-1.523.59-.54 1.168-1.086 1.61-1.594a4.38 4.38 0 0 0 .55-.758c.141-.265.301-.597.153-1.043-.145-.449-.465-.625-.738-.754-.27-.132-.563-.214-.89-.293-.657-.148-1.442-.253-2.24-.343-.796-.094-1.597-.172-2.226-.262a9.813 9.813 0 0 1-.785-.14c-.113-.028-.195-.063-.238-.079a1.704 1.704 0 0 1-.149-.199 9.56 9.56 0 0 1-.37-.703c-.282-.574-.606-1.309-.938-2.04-.336-.726-.676-1.444-1.024-2.019a4.236 4.236 0 0 0-.55-.761c-.207-.22-.473-.47-.946-.47zm0 1.683c.067.086.137.192.211.32.285.47.617 1.157.942 1.872.328.715.652 1.457.957 2.074.148.309.293.586.441.824.148.242.262.442.54.64.273.2.5.25.773.317.273.063.582.118.925.164.68.098 1.485.176 2.266.266.777.094 1.535.195 2.07.316.145.036.266.07.371.106-.066.086-.144.187-.238.297-.363.414-.914.945-1.492 1.476-.578.532-1.184 1.067-1.676 1.547a9.21 9.21 0 0 0-.648.676c-.184.215-.34.387-.446.71-.105.325-.078.556-.058.833.023.281.07.594.129.93.117.68.289 1.468.445 2.238.156.77.293 1.523.34 2.07.012.145.015.274.015.383a4.514 4.514 0 0 1-.355-.137c-.508-.21-1.18-.574-1.863-.96-.684-.387-1.383-.794-1.992-1.118-.305-.16-.583-.3-.844-.406-.262-.11-.473-.203-.813-.203-.34 0-.55.094-.808.203a9.561 9.561 0 0 0-.848.406c-.605.324-1.305.73-1.988 1.117-.684.387-1.36.75-1.864.961a4.543 4.543 0 0 1-.359.137c0-.11.004-.238.02-.383.046-.547.183-1.3.336-2.07.156-.77.328-1.559.449-2.238.058-.336.105-.649.125-.93.023-.277.047-.508-.059-.832-.105-.324-.258-.496-.441-.711a10.11 10.11 0 0 0-.649-.676c-.496-.48-1.101-1.015-1.68-1.547-.577-.53-1.128-1.062-1.488-1.476a3.768 3.768 0 0 1-.238-.297c.102-.035.227-.07.367-.106.535-.12 1.293-.222 2.074-.316.778-.09 1.586-.168 2.266-.266.34-.046.649-.101.922-.164.273-.066.504-.117.777-.316.274-.2.39-.399.535-.64.149-.239.293-.516.446-.825.3-.617.629-1.36.953-2.074.328-.715.66-1.402.941-1.871a4.6 4.6 0 0 1 .211-.32zm0 0" fill="#ff7043"/></svg>
